public/logos/ZB.svg

<?xml version="1.0" encoding="UTF-8"?>
<svg xmlns="http://www.w3.org/2000/svg" xmlns:xlink="http://www.w3.org/1999/xlink" width="176pt" height="33.67pt" viewBox="0 0 176 33.67" version="1.1">
<defs>
<clipPath id="clip1">
  <path d="M 0 0 L 34 0 L 34 33.671875 L 0 33.671875 Z M 0 0 "/>
</clipPath>
</defs>
<g id="surface1">
<path style=" stroke:none;fill-rule:nonzero;fill:rgb(89.466858%,12.22229%,14.851379%);fill-opacity:1;" d="M 86.390625 9.867188 L 88.703125 9.867188 L 95.621094 24.484375 L 93.273438 24.484375 L 92.320312 22.386719 L 87.957031 22.386719 C 87.304688 22.386719 86.714844 22.433594 86.203125 22.519531 C 85.703125 22.609375 85.261719 22.722656 84.910156 22.863281 C 84.550781 23.003906 84.261719 23.164062 84.039062 23.328125 C 83.828125 23.488281 83.679688 23.664062 83.601562 23.804688 L 83.230469 24.484375 L 80.960938 24.484375 L 87.179688 11.636719 Z M 91.378906 20.269531 L 88.238281 14.195312 L 85.0625 21.078125 C 85.316406 20.855469 85.746094 20.664062 86.335938 20.503906 C 86.925781 20.347656 87.71875 20.269531 88.722656 20.269531 Z M 97.910156 24.484375 L 97.910156 10.113281 L 100.003906 10.113281 L 100.003906 22.363281 L 107.976562 22.363281 L 107.976562 24.484375 Z M 112.175781 16.640625 C 112.605469 16.386719 113.054688 16.21875 113.511719 16.167969 C 113.960938 16.105469 114.425781 16.070312 114.902344 16.070312 L 117.355469 16.070312 C 118.007812 16.070312 118.527344 15.902344 118.914062 15.578125 C 119.292969 15.242188 119.484375 14.742188 119.484375 14.074219 C 119.484375 13.394531 119.285156 12.910156 118.894531 12.648438 C 118.5 12.375 117.980469 12.234375 117.355469 12.234375 L 112.175781 12.234375 Z M 112.175781 22.363281 L 117.566406 22.363281 C 117.851562 22.363281 118.15625 22.316406 118.464844 22.238281 C 118.773438 22.160156 119.074219 22.027344 119.320312 21.859375 C 119.574219 21.691406 119.792969 21.464844 119.953125 21.210938 C 120.121094 20.945312 120.199219 20.628906 120.199219 20.277344 C 120.199219 19.855469 120.121094 19.503906 119.953125 19.238281 C 119.792969 18.972656 119.566406 18.753906 119.300781 18.605469 C 119.039062 18.453125 118.722656 18.339844 118.386719 18.277344 C 118.050781 18.226562 117.699219 18.183594 117.355469 18.183594 L 114.902344 18.183594 C 114.445312 18.183594 113.976562 18.226562 113.519531 18.304688 C 113.054688 18.375 112.605469 18.523438 112.175781 18.761719 Z M 122.304688 20.558594 C 122.304688 21.28125 122.160156 21.886719 121.871094 22.378906 C 121.582031 22.871094 121.191406 23.277344 120.726562 23.585938 C 120.261719 23.894531 119.722656 24.128906 119.136719 24.273438 C 118.554688 24.414062 117.945312 24.484375 117.363281 24.484375 L 110.070312 24.484375 L 110.070312 10.113281 L 117.355469 10.113281 C 117.953125 10.113281 118.519531 10.199219 119.039062 10.375 C 119.558594 10.550781 120.015625 10.808594 120.382812 11.140625 C 120.761719 11.46875 121.0625 11.882812 121.273438 12.375 C 121.484375 12.859375 121.589844 13.421875 121.589844 14.054688 C 121.589844 14.671875 121.476562 15.234375 121.265625 15.726562 C 121.042969 16.226562 120.726562 16.617188 120.296875 16.886719 C 120.542969 17.003906 120.796875 17.171875 121.035156 17.382812 C 121.28125 17.582031 121.503906 17.855469 121.679688 18.15625 C 121.855469 18.464844 122.011719 18.824219 122.125 19.21875 C 122.242188 19.609375 122.304688 20.054688 122.304688 20.558594 Z M 129.105469 9.867188 L 131.417969 9.867188 L 138.335938 24.484375 L 135.984375 24.484375 L 135.035156 22.386719 L 130.671875 22.386719 C 130.019531 22.386719 129.429688 22.433594 128.921875 22.519531 C 128.417969 22.609375 127.980469 22.730469 127.625 22.863281 C 127.265625 23.003906 126.976562 23.164062 126.753906 23.328125 C 126.542969 23.488281 126.394531 23.664062 126.316406 23.804688 L 125.945312 24.484375 L 123.675781 24.484375 L 129.894531 11.636719 Z M 134.09375 20.269531 L 130.953125 14.195312 L 127.777344 21.078125 C 128.03125 20.855469 128.460938 20.664062 129.050781 20.503906 C 129.640625 20.347656 130.433594 20.269531 131.4375 20.269531 Z M 139.234375 10.113281 L 141.945312 10.113281 L 151.175781 21.09375 L 151.175781 10.113281 L 153.269531 10.113281 L 153.269531 24.484375 L 151.191406 24.484375 L 142.964844 14.601562 L 142.964844 24.484375 L 140.90625 24.484375 L 140.90625 12.136719 Z M 157.257812 24.484375 L 157.257812 10.113281 L 159.316406 10.113281 L 159.316406 24.484375 Z M 166.777344 9.867188 L 169.082031 9.867188 L 176 24.484375 L 173.648438 24.484375 L 172.710938 22.386719 L 168.335938 22.386719 C 167.691406 22.386719 167.09375 22.433594 166.59375 22.519531 C 166.089844 22.601562 165.644531 22.730469 165.289062 22.863281 C 164.9375 23.003906 164.640625 23.171875 164.429688 23.328125 C 164.21875 23.488281 164.058594 23.671875 163.980469 23.804688 L 163.617188 24.484375 L 161.347656 24.484375 L 167.5625 11.636719 Z M 171.769531 20.269531 L 168.625 14.195312 L 165.449219 21.078125 C 165.703125 20.855469 166.125 20.664062 166.714844 20.503906 C 167.304688 20.347656 168.105469 20.269531 169.109375 20.269531 L 171.769531 20.269531 "/>
<path style=" stroke:none;fill-rule:nonzero;fill:rgb(7.008362%,6.510925%,6.420898%);fill-opacity:1;" d="M 44.84375 9.867188 L 47.160156 9.867188 L 54.078125 24.484375 L 51.726562 24.484375 L 50.777344 22.386719 L 46.402344 22.386719 C 45.75 22.386719 45.171875 22.433594 44.660156 22.519531 C 44.15625 22.609375 43.726562 22.722656 43.367188 22.863281 C 43.003906 23.003906 42.714844 23.164062 42.496094 23.328125 C 42.277344 23.496094 42.132812 23.65625 42.054688 23.804688 L 41.683594 24.484375 L 39.414062 24.484375 L 45.636719 11.636719 Z M 49.835938 20.269531 L 46.691406 14.195312 L 43.515625 21.078125 C 43.769531 20.855469 44.203125 20.664062 44.792969 20.503906 C 45.382812 20.347656 46.171875 20.269531 47.175781 20.269531 Z M 56.363281 24.484375 L 56.363281 10.113281 L 58.421875 10.113281 L 58.421875 24.484375 Z M 64.285156 16.976562 C 64.714844 16.722656 65.164062 16.554688 65.613281 16.5 C 66.050781 16.449219 66.519531 16.414062 66.996094 16.414062 L 69.730469 16.414062 C 70.460938 16.414062 71.050781 16.238281 71.5 15.894531 C 71.949219 15.558594 72.175781 15.003906 72.175781 14.238281 C 72.175781 13.871094 72.105469 13.554688 71.984375 13.308594 C 71.859375 13.050781 71.675781 12.839844 71.464844 12.683594 C 71.246094 12.523438 70.988281 12.410156 70.691406 12.339844 C 70.398438 12.269531 70.074219 12.234375 69.730469 12.234375 L 64.285156 12.234375 Z M 68.683594 18.535156 L 67.003906 18.535156 C 66.535156 18.535156 66.078125 18.570312 65.621094 18.640625 C 65.164062 18.710938 64.714844 18.859375 64.285156 19.089844 L 64.285156 24.484375 L 62.179688 24.484375 L 62.179688 10.113281 L 69.738281 10.113281 C 70.398438 10.113281 71.007812 10.210938 71.550781 10.394531 C 72.105469 10.578125 72.589844 10.859375 72.996094 11.210938 C 73.402344 11.574219 73.71875 12.011719 73.9375 12.542969 C 74.167969 13.070312 74.273438 13.675781 74.273438 14.355469 C 74.273438 15.445312 73.980469 16.34375 73.390625 17.027344 C 72.800781 17.722656 71.984375 18.199219 70.945312 18.453125 L 72.0625 20.75 C 72.238281 21.113281 72.496094 21.351562 72.660156 21.550781 C 72.828125 21.753906 72.996094 21.921875 73.144531 22.046875 C 73.304688 22.167969 73.472656 22.257812 73.628906 22.300781 C 73.804688 22.34375 74 22.371094 74.238281 22.363281 L 74.914062 22.34375 L 74.914062 24.484375 C 74.5 24.484375 74.085938 24.464844 73.664062 24.449219 C 73.25 24.421875 72.847656 24.332031 72.460938 24.191406 C 72.082031 24.050781 71.703125 23.824219 71.359375 23.523438 C 71.015625 23.214844 70.707031 22.777344 70.433594 22.210938 L 68.683594 18.535156 "/>
<g clip-path="url(#clip1)" clip-rule="nonzero">
<path style=" stroke:none;fill-rule:evenodd;fill:rgb(89.466858%,12.22229%,14.851379%);fill-opacity:1;" d="M 16.835938 0 C 26.132812 0 33.667969 7.539062 33.667969 16.835938 C 33.667969 26.132812 26.132812 33.671875 16.835938 33.671875 C 7.539062 33.671875 0 26.132812 0 16.835938 C 0 7.539062 7.539062 0 16.835938 0 "/>
</g>
<path style=" stroke:none;fill-rule:evenodd;fill:rgb(7.008362%,6.510925%,6.420898%);fill-opacity:1;" d="M 21.4375 17.628906 C 13.113281 22.117188 8.675781 19.46875 2.113281 25.003906 C 2.480469 25.671875 2.894531 26.304688 3.351562 26.910156 C 5.765625 26.496094 18.472656 25.425781 21.4375 17.628906 Z M 27.394531 5.546875 C 22.695312 13.308594 11.386719 12.417969 5.421875 17.496094 C 3.90625 18.773438 2.023438 21.253906 1.382812 23.53125 C 4.03125 21.296875 5.992188 20.59375 9.273438 19.800781 C 16.632812 18.015625 24.445312 17.8125 27.394531 5.546875 Z M 16.253906 24.78125 C 11.5 27.097656 7.523438 27.449219 4.328125 28.109375 C 5.070312 28.917969 5.878906 29.667969 6.757812 30.316406 C 11.195312 28.925781 14.777344 27.808594 16.253906 24.78125 "/>
</g>
</svg>

<svg xmlns="http://www.w3.org/2000/svg" width="176pt" height="44.893" viewBox="0 0 176 33.67"><defs><clipPath id="a"><path d="M0 0h34v33.672H0Zm0 0"/></clipPath></defs><path d="M86.39 9.867h2.313l6.918 14.617h-2.348l-.953-2.097h-4.363c-.652 0-1.242.047-1.754.133-.5.09-.941.203-1.293.343-.36.14-.648.301-.87.465-.212.16-.36.336-.438.477l-.372.68h-2.27l6.22-12.848ZM91.38 20.27l-3.14-6.075-3.177 6.883c.254-.223.684-.414 1.274-.574.59-.156 1.383-.234 2.387-.234Zm6.531 4.214v-14.37h2.094v12.25h7.973v2.12Zm14.266-7.843c.43-.254.879-.422 1.336-.473q.675-.096 1.39-.098h2.453c.653 0 1.172-.168 1.56-.492q.569-.503.57-1.504c0-.68-.2-1.164-.59-1.426-.395-.273-.915-.414-1.54-.414h-5.18Zm0 5.722h5.39c.286 0 .59-.047.899-.125.308-.078.61-.21.855-.379.254-.168.473-.394.633-.648.168-.266.246-.582.246-.934 0-.422-.078-.773-.246-1.039a1.8 1.8 0 0 0-.652-.633 2.9 2.9 0 0 0-.914-.328 7 7 0 0 0-1.032-.093h-2.453c-.457 0-.925.043-1.382.12-.465.071-.915.22-1.344.458Zm10.129-1.804q0 1.082-.434 1.82a3.7 3.7 0 0 1-1.144 1.207 5.1 5.1 0 0 1-1.59.687 7.6 7.6 0 0 1-1.774.211h-7.293v-14.37h7.285c.598 0 1.165.085 1.684.261.52.176.977.434 1.344.766.379.328.68.742.89 1.234.211.484.317 1.047.317 1.68 0 .617-.113 1.18-.324 1.672-.223.5-.54.89-.97 1.16.247.117.5.285.74.496.245.199.468.472.644.773.175.309.332.668.445 1.063.117.39.18.836.18 1.34m6.8-10.692h2.313l6.918 14.617h-2.352l-.949-2.097h-4.363c-.652 0-1.242.047-1.75.133-.504.09-.942.21-1.297.343-.36.14-.648.301-.871.465-.211.16-.36.336-.438.477l-.37.68h-2.27l6.219-12.848Zm4.989 10.403-3.14-6.075-3.177 6.883c.254-.223.684-.414 1.274-.574.59-.156 1.383-.234 2.387-.234Zm5.14-10.157h2.711l9.23 10.98v-10.98h2.095v14.371h-2.079l-8.226-9.882v9.882h-2.059V12.137Zm18.024 14.371v-14.37h2.058v14.37Zm9.52-14.617h2.304L176 24.484h-2.352l-.937-2.097h-4.375c-.645 0-1.242.047-1.742.133a7 7 0 0 0-1.305.343 4 4 0 0 0-.86.465c-.21.16-.37.344-.449.477l-.363.68h-2.27l6.215-12.848Zm4.992 10.403-3.145-6.075-3.176 6.883q.381-.334 1.266-.574.887-.234 2.394-.234z" style="stroke:none;fill-rule:nonzero;fill:#e41f26;fill-opacity:1"/><path d="M44.844 9.867h2.316l6.918 14.617h-2.351l-.95-2.097h-4.375c-.652 0-1.23.047-1.742.133q-.755.134-1.293.343c-.363.14-.652.301-.87.465-.22.168-.364.328-.442.477l-.371.68h-2.27l6.223-12.848Zm4.992 10.403-3.145-6.075-3.175 6.883c.254-.223.687-.414 1.277-.574.59-.156 1.379-.234 2.383-.234Zm6.527 4.214v-14.37h2.059v14.37Zm7.922-7.507c.43-.254.88-.422 1.328-.477.438-.05.907-.086 1.383-.086h2.734q1.095-.002 1.77-.52c.45-.335.676-.89.676-1.656 0-.367-.07-.683-.192-.93a1.7 1.7 0 0 0-.52-.624 2.1 2.1 0 0 0-.773-.344 4 4 0 0 0-.96-.106h-5.446Zm4.399 1.558h-1.68c-.469 0-.926.035-1.383.106s-.906.218-1.336.449v5.394H62.18v-14.37h7.558c.66 0 1.27.097 1.813.28.554.184 1.039.465 1.445.817.406.363.723.8.942 1.332.23.527.335 1.133.335 1.812 0 1.09-.293 1.989-.882 2.672q-.886 1.045-2.446 1.426l1.118 2.297c.175.363.433.602.597.8.168.204.336.372.485.497.16.121.328.21.484.254.176.043.371.07.61.062l.675-.02v2.141c-.414 0-.828-.02-1.25-.035a4.4 4.4 0 0 1-1.203-.258 3.6 3.6 0 0 1-1.102-.668q-.515-.463-.925-1.312z" style="stroke:none;fill-rule:nonzero;fill:#121110;fill-opacity:1"/><g clip-path="url(#a)"><path d="M16.836 0c9.297 0 16.832 7.54 16.832 16.836 0 9.297-7.535 16.836-16.832 16.836S0 26.132 0 16.836C0 7.539 7.54 0 16.836 0" style="stroke:none;fill-rule:evenodd;fill:#e41f26;fill-opacity:1"/></g><path d="M21.438 17.629c-8.325 4.488-12.762 1.84-19.325 7.375.367.668.782 1.3 1.239 1.906 2.414-.414 15.12-1.484 18.086-9.281m5.957-12.082c-4.7 7.762-16.008 6.871-21.973 11.95-1.516 1.276-3.399 3.757-4.04 6.034 2.65-2.234 4.61-2.937 7.891-3.73 7.36-1.785 15.172-1.988 18.122-14.254M16.254 24.78C11.5 27.098 7.524 27.45 4.328 28.11c.742.809 1.55 1.559 2.43 2.207 4.437-1.39 8.02-2.507 9.496-5.535" style="stroke:none;fill-rule:evenodd;fill:#121110;fill-opacity:1"/></svg>
